X: 37
T:Le Reel Des Jeunes Maries
% Nottingham Music Database
S:via PR
M:4/4
L:1/4
K:D
"D"DF/2A/2 F/2A/2d/2e/2|f/2a/2f/2d/2 Af|"A"g/2f/2e/2d/2 "A7"c/2A/2B/2c/2|\
"D"d/2c/2d/2e/2 f/2e/2d/2A/2|
"D"DF/2A/2 F/2A/2d/2e/2|f/2a/2f/2d/2 Af|"A"g/2f/2e/2d/2 "A7"c/2A/2B/2c/2|\
"D"df dA::
"D"af/2d/2 A/2d/2f/2a/2|"A"g/2e/2c/2B/2 A/2c/2e/2f/2|\
"A"ge/2c/2 "A7"A/2c/2e/2g/2|"D"f/2e/2d/2f/2 "A7"e/2A/2d/2f/2|
"D"af/2d/2 A/2d/2f/2a/2|"A"g/2e/2c/2B/2 A/2c/2e/2f/2|\
"A"ge/2c/2 "A7"A/2c/2e/2g/2|"A7"f/2d/2e/2c/2 "D"d2:|


